src/img/icon-recording.svg

<svg fill="none" height="14" viewBox="0 0 20 14" width="20" xmlns="http://www.w3.org/2000/svg"><path d="m13.3333 2.05961v9.99999c0 .9205-.7461 1.6667-1.6666 1.6667h-10.00003c-.920489 0-1.66667-.7462-1.66667-1.6667v-9.99999c0-.92049.746181-1.666666 1.66667-1.666666h10.00003c.9201 0 1.6666.746176 1.6666 1.666666zm6.6667.5382v8.92009c0 .8855-1.0128 1.4025-1.7497.8955l-3.8059-2.62115v-5.46528l3.8056-2.62361c.7396-.50729 1.75.0125 1.75.89445z" fill="#2e8131"/></svg>

<svg width="20" height="14" viewBox="0 0 20 14" fill="none" xmlns="http://www.w3.org/2000/svg">
<path d="M13.3333 2.05961V12.0596C13.3333 12.9801 12.5872 13.7263 11.6667 13.7263H1.66667C0.746181 13.7263 0 12.9801 0 12.0596V2.05961C0 1.13912 0.746181 0.392944 1.66667 0.392944H11.6667C12.5868 0.392944 13.3333 1.13912 13.3333 2.05961ZM20 2.59781V11.5179C20 12.4034 18.9872 12.9204 18.2503 12.4134L14.4444 9.79225V4.32697L18.25 1.70336C18.9896 1.19607 20 1.71586 20 2.59781Z" fill="#2E8131"/>
</svg>
